X: 1340
T: Pat Tuohy's Reel
R: reel
%S: s:3 b:13(5+4+4)
%S: s:4 b:16(4+4+4+4)
O: Tuohy
B: O'Neill's 1850 #1340
Z: Trish O'Neil
M: C|
L: 1/8
K: Em
"^A"\
|: B>(E (3{F}EDE) BAFE | D2FD ADFD | B>(E (3{F}EDE) BAFE |\
(3(B^c^d) eg [1 fde=c :| [2 eg fee2 |]
"^B"\
[| e2(ge) Bege | ^defg agfg | e2(ge) Bege | ^defa gee2 ||
|| e2(ge) Bege | ^defg a2ga | (3(bag) (af) gefe | (3(^c^de) fa gee2 |]
